icons/amplify.svg

<!--
  - The MIT License (MIT)
  -
  - Copyright (c) 2015-2024 Elior "Mallowigi" Boukhobza
  -
  - Permission is hereby granted, free of charge, to any person obtaining a copy
  - of this software and associated documentation files (the "Software"), to deal
  - in the Software without restriction, including without limitation the rights
  - to use, copy, modify, merge, publish, distribute, sublicense, and/or sell
  - copies of the Software, and to permit persons to whom the Software is
  - furnished to do so, subject to the following conditions:
  -
  - The above copyright notice and this permission notice shall be included in all
  - copies or substantial portions of the Software.
  -
  - THE SOFTWARE IS PROVIDED "AS IS", WITHOUT WARRANTY OF ANY KIND, EXPRESS OR
  - IMPLIED, INCLUDING BUT NOT LIMITED TO THE WARRANTIES OF MERCHANTABILITY,
  - FITNESS FOR A PARTICULAR PURPOSE AND NONINFRINGEMENT. IN NO EVENT SHALL THE
  - AUTHORS OR COPYRIGHT HOLDERS BE LIABLE FOR ANY CLAIM, DAMAGES OR OTHER
  - LIABILITY, WHETHER IN AN ACTION OF CONTRACT, TORT OR OTHERWISE, ARISING FROM,
  - OUT OF OR IN CONNECTION WITH THE SOFTWARE OR THE USE OR OTHER DEALINGS IN THE
  - SOFTWARE.
  -
  -->

<svg width="16px" height="16px" viewBox="0 0 24 24" xmlns="http://www.w3.org/2000/svg">
  <g fill="#FFAF38" data-iconColor="Amplify">
    <path fill-rule="evenodd" clip-rule="evenodd"
          d="M6.01283 12.467L7.69447 9.55513L9.13826 12.0569L6.32436 16.9293H11.9501L13.3879 19.4206H2L6.01283 12.467ZM8.45324 8.23829L9.83948 5.83628L17.6848 19.4206H14.9065L8.45324 8.23829ZM10.6111 4.5H13.3857L22 19.4206H19.2219L10.6111 4.5Z"
    />
    <path fill-rule="evenodd" clip-rule="evenodd" d="M2 19.4205H13.4286L11.9856 16.8809H6.3398L2 19.4205Z"
    />
  </g>
</svg>

<svg xmlns="http://www.w3.org/2000/svg" viewBox="0 0 24 24"><g fill="#ffaf38" fill-rule="evenodd" clip-rule="evenodd" data-iconColor="Amplify"><path d="m6.013 12.467 1.681-2.912 1.444 2.502-2.814 4.872h5.626l1.438 2.492H2zm2.44-4.229L9.84 5.836l7.846 13.585h-2.778zM10.611 4.5h2.775L22 19.42h-2.778z"/><path d="M2 19.42h11.429l-1.443-2.54H6.34z"/></g></svg>
